X:30
T:Cerottisier . Ildee coghn thet Man\
s:e Audoth 4 conpet L's O'si!"C,G.n/wn
B:Ol Marole
R:c


*****************************


9800 1 1.8400302 

<startongalongailalin by tromen Hisso, #16ithi8
H:Orish O'Reeland
C:00ide wascery Pawet,
Z:if:hn-hf-6
M:4


*****************************


9900 1 1.6224043 

<startophellaip str/an-ar-131
M:2/4
K:Em
EED BABA | GFED FEEF | EFDF A2cA | E3E AFD2 | BEG2 FEFD | E_GFG 


*****************************


10000 1 1.674467 

<startolan (316
T:Chil in nafe Gin Toy wudilsaine B
H:Adin
Rtonlia \-2e
T:Aobhnn & Tennand
Z:ich:hn-he-20


*****************************


10100 1 1.6148667 

<star_
K:Am
Ae | cdb2 g2ef | fdff gge |
d2Bd fgfe | dg fege dgfe |
adAG B2gg | affe dcde | fede aga2 | gg


*****************************


10200 1 1.9473172 

<startolpiol. Ellago vorn iMchee (31289
M:C|
K:G
(3Bcd | efge d2B2 | A2GA G2Bc|d2 (3AGA B9 :|
<end>
<star


*****************************


10300 1 1.4258345 

<start>
